korla/apps/scalable/patchage.svg

<svg width="48" height="48" xmlns="http://www.w3.org/2000/svg">
 <path d="m24 41.00003s0-19 0-24 4-8 8-8 8 3 8 8-4 8-8 8-24 0-24 0" style="fill:none;opacity:.2;stroke-linecap:round;stroke-linejoin:round;stroke-width:8;stroke:#141414"/>
 <path d="m32 4a12 12 0 0 0 -10.267578 5.8125c-.050319.0817949-.096109.1667643-.144531.25a12 12 0 0 0 -.378907.708984c-.09913.201188-.187395.408736-.27539.617188a12 12 0 0 0 -.167969.416016c-.095037.252049-.179657.509806-.257813.771484a12 12 0 0 0 -.111328.398437c-.063967.245798-.121427.494501-.169922.748047a12 12 0 0 0 -.089843.550782c-.029261.204884-.0573.409687-.076172.61914a12 12 0 0 0 -.060547 1.107422v4h4v-4a8 8 0 0 1 8-8 8 8 0 0 1 8 8 8 8 0 0 1 -8 8h-6-2-4-1-15.0546875a4.0004 4.0004 0 0 0 4.0546875 4h12v12a4.0004 4.0004 0 0 0 4 4.054688v-16.054688h4 4a12 12 0 0 0 12-12 12 12 0 0 0 -12-12z" fill="#58a90a"/>
 <path d="m32 8c-4.418278 0-8 3.581722-8 8v4h-16c-2.2303733-0.03027-4.0546699 1.769421-4.0546875 4h28.054688c4.418278 0 8-3.581722 8-8s-3.581722-8-8-8zm0 4c2 0 4 1.133333 4 4s-2 4-4 4h-4v-4c0-2.866667 2-4 4-4zm-8 16v16.054688c2.230579-1.8e-5 4.03027-1.824315 4-4.054688v-12zm-0.01758 16.054688c0.01758-0.05469 0 0 0 0z" fill="#e4e4e4"/>
 <path d="m20 28h8v1h-8z" opacity=".2"/>
 <g fill="#fff">
  <path d="m32 4c-6 0-12 4.8666667-12 12v1c0-7.1333333 6-12 12-12 5.85694 0 11.698642 4.6437041 11.974609 11.5.006741-.16747.025391-.329918.025391-.5 0-7.1333333-6-12-12-12zm3.955078 12.5c-.228246 2.484442-2.080809 3.5-3.955078 3.5h-4v1h4c2 0 4-1.133333 4-4 0-.180214-.029611-.333337-.044922-.5zm-27.955078 3.5a4.0004 4.0004 0 0 0 -4.0214844 4.511719 4.0004 4.0004 0 0 1 4.0214844-3.511719h12v-1z" opacity=".2"/>
  <path d="m20 20h8v1h-8z" opacity=".2"/>
 </g>
</svg>

<svg xmlns="http://www.w3.org/2000/svg" width="48" height="48" version="1">
 <path style="opacity:0.2;fill:none;stroke:#141414;stroke-width:8;stroke-linecap:round;stroke-linejoin:round" d="m 24,41.00003 c 0,0 0,-19 0,-24 0,-5 4,-8 8,-8 4,0 8,3 8,8 0,5 -4,8 -8,8 -4,0 -24,0 -24,0"/>
 <path style="fill:#58a90a" d="M 32 4 A 12 12 0 0 0 21.732422 9.8125 C 21.682103 9.8942949 21.636313 9.9792643 21.587891 10.0625 A 12 12 0 0 0 21.208984 10.771484 C 21.109854 10.972672 21.021589 11.18022 20.933594 11.388672 A 12 12 0 0 0 20.765625 11.804688 C 20.670588 12.056737 20.585968 12.314494 20.507812 12.576172 A 12 12 0 0 0 20.396484 12.974609 C 20.332517 13.220407 20.275057 13.46911 20.226562 13.722656 A 12 12 0 0 0 20.136719 14.273438 C 20.107458 14.478322 20.079419 14.683125 20.060547 14.892578 A 12 12 0 0 0 20 16 L 20 20 L 24 20 L 24 16 A 8 8 0 0 1 32 8 A 8 8 0 0 1 40 16 A 8 8 0 0 1 32 24 L 26 24 L 24 24 L 20 24 L 19 24 L 3.9453125 24 A 4.0004 4.0004 0 0 0 8 28 L 20 28 L 20 40 A 4.0004 4.0004 0 0 0 24 44.054688 L 24 28 L 28 28 L 32 28 A 12 12 0 0 0 44 16 A 12 12 0 0 0 32 4 z"/>
 <path style="fill:#e4e4e4" d="m 32,8 c -4.418278,0 -8,3.581722 -8,8 v 4 H 20 8 C 5.7696267,19.96973 3.9453301,21.769421 3.9453125,24 H 19 h 1 4 2 6 c 4.418278,0 8,-3.581722 8,-8 0,-4.418278 -3.581722,-8 -8,-8 z m 0,4 c 2,0 4,1.133333 4,4 0,2.866667 -2,4 -4,4 h -4 v -4 c 0,-2.866667 2,-4 4,-4 z M 24,28 V 44.054688 C 26.230579,44.05467 28.03027,42.230373 28,40 V 28 Z m -0.01758,16.054688 c 0.01758,-0.05469 0,0 0,0 z"/>
 <rect style="opacity:0.2" width="8" height="1" x="20" y="28"/>
 <path style="opacity:0.2;fill:#ffffff" d="M 32 4 C 26 4 20 8.8666667 20 16 L 20 17 C 20 9.8666667 26 5 32 5 C 37.85694 5 43.698642 9.6437041 43.974609 16.5 C 43.98135 16.33253 44 16.170082 44 16 C 44 8.8666667 38 4 32 4 z M 35.955078 16.5 C 35.726832 18.984442 33.874269 20 32 20 L 28 20 L 28 21 L 32 21 C 34 21 36 19.866667 36 17 C 36 16.819786 35.970389 16.666663 35.955078 16.5 z M 8 20 A 4.0004 4.0004 0 0 0 3.9785156 24.511719 A 4.0004 4.0004 0 0 1 8 21 L 20 21 L 20 20 L 8 20 z"/>
 <rect style="opacity:0.2;fill:#ffffff" width="8" height="1" x="20" y="20"/>
</svg>
